X:1
T:Elegie
T:ELEGIE.
T:S.Rachmaninoff. Op.3.No.1
C:S.Rachmaninov
%%score { ( 1 3 ) | ( 2 4 ) }
L:1/8
Q:1/4=68
M:4/4
K:Gb
V:1 treble nm="Piano"
V:3 treble 
V:2 bass 
V:4 bass 
V:1
"^Moderato" z8[Q:1/4=72] | z8 | z4!mf! !tenuto!g4- | g6 !tenuto!f2- | %4
 f !tenuto!=d2 (e/f/) !tenuto!e4- | e"_cresc." (B2 c _d4-) | d!mf!!<(!(e/d/ c4) !tenuto!B2-!<)! | %7
"_dim." B2 !tenuto!A4[Q:1/4=64] !tenuto!G2[Q:1/4=68] |[Q:1/4=72]!p! E8 | %9
!pp! (3z ([CF][EG] (3[FA][GB][Ac]) ([ca]7/2 [Bg]/) | [Bg]4!mf! !tenuto!g4- | %11
 g2[Q:1/4=68] (5:4:5(!tenuto!f/!tenuto!g/!tenuto!f/!tenuto!e/!tenuto!f/)[Q:1/4=72] !tenuto!g3 !tenuto!f- | %12
 f !tenuto!=d2 (e/f/) !tenuto!e4- | e2"_cresc." !tenuto!B4 c2 |!f! d8- | %15
 d"_dim."(e/d/)!mp! !tenuto![Ec]4[Q:1/4=64] !tenuto![DB]2[Q:1/4=68] |!p![Q:1/4=72] [B,G]8 | %17
 z2!pp! (F2[Q:1/4=68] [EG]2[Q:1/4=64] [FA]2) |[Q:1/4=72] [=DB]8 | %19
 z!<(! (!tenuto![Ac] (3!tenuto![Bd]!tenuto![ce]!tenuto![df])!<)![Q:1/4=68]!p!!>(! (!tenuto![gb]3[Q:1/4=64]!pp! !tenuto![fa])!>)! | %20
[Q:1/4=72]!pp!!pp! [B=d]8 |"_con affetto" z2 (B2 =c2 =d2) |"_cresc." [GBe]8 | %23
!mf! z!<(! (!tenuto![Bf] (3!tenuto![eg]!tenuto![fa]!tenuto![gb])!<)![Q:1/4=68]!f!!>(! (!tenuto![d'f']3[Q:1/4=60] !tenuto![=c'e'])!>)! | %24
[Q:1/4=72]!f! [f=a]8 | z2!ff! !>![ge'g']2 !>![fd'f']2 !>![ec'e']2 | %26
 !>![fd'f']2 (3!>![e=c'e']!>![fd'f']!>![ec'e'] !>![dbd']4 | z2 !>![cac']2 !>![Bgb]2 !>![Afa]2 | %28
 !>![Bgb]2 (3!>![Afa]!>![Bgb]!>![Afa] !>![Geg]4- | %29
 [Geg]2 (!tenuto![Af]2[Q:1/4=68] !tenuto![Ge]2[Q:1/4=60] !tenuto![F=d]2) | %30
[Q:1/4=72] !tenuto![ca]4 !tenuto![Bg]4- | %31
"_dim." [Bg]2 (3(!tenuto![Af]!tenuto![Bg]!tenuto![Af])[Q:1/4=68] (!tenuto![Ge]3[Q:1/4=64] !tenuto![F=d]) | %32
[Q:1/4=72] !tenuto![Ge]4!f! !tenuto![Bg]4- | %33
 [Bg]2[Q:1/4=68] (5:4:5(!tenuto![Af]/!tenuto![Bg]/!tenuto![Af]/!tenuto![Ge]/!tenuto![Af]/)[Q:1/4=72] !tenuto![Bg]3 !tenuto![Af]- | %34
 [Af] !tenuto![F=d]2 (!tenuto![Ge]/!tenuto![Af]/) [Ge]4- | %35
 [Ge] !tenuto![DB]2 !tenuto![Ec] !tenuto![_Fd]4- | %36
 [Fd](!tenuto![_Ge]/!tenuto![_Fd]/) !tenuto![Ec]4 !tenuto![DB]2- | %37
 [DB]2 !tenuto![CA]4"^rit."[Q:1/4=68] (3!tenuto![B,G]!tenuto![CA][Q:1/4=64]!tenuto![B,G] | %38
[Q:1/4=72] [G,E]8- | [G,E]8[Q:1/4=68][Q:1/4=64] | %40
[Q:1/4=120]"^Piú vivo"!pp! ([Be][Q:1/4=132][Gd][Be][Gd])!pp! ([da][Bg][da][Bg]) | %41
 ([Be][Gd][Be][Gd]) ([Gd][Ec][Gd][Ec]) | ([Ac][EB][Ac][EB]) ([=DB][B,A][DB][B,A]) | %43
 ([=DB][B,A][DB][B,A]) ([EB][B,G][EB][B,G]) | ([G__B][EA][GB][EA]) ([EA][A,G][EA][A,G]) | %45
 ([=DA][A,F][Q:1/4=128][DA][A,F])[Q:1/4=124]!<(! ([DB][B,F][Q:1/4=120][Dc][CF])!<)! | %46
[Q:1/4=132]!>(! ([Be][G_d][Be][Gd])!>)!!pp! ([da][Bg][da][Bg]) | %47
 ([Be][Gd][Be][Gd]) ([Gd][Ec][Gd][Ec]) | ([Ac][EB][Ac][EB]) ([=DB][B,A][DB][B,A]) | %49
 ([=DB][B,A][DB][B,A]) ([EB][B,G][EB][B,G]) | ([G__B][EA][GB][EA]) ([EA][A,G][EA][A,G]) | %51
 ([E=A][=A,G])([DB][B,G])"^rit."[Q:1/4=128] ([ce][Fd][Q:1/4=124][ce][Fd]) | %52
"^a Tempo" ([=dg][Af][dg][Af])!mf! b4- | b4 (a2 e2) | (g3 f)!<(! (3(B,2 =C2 =D2) | %55
 (E2!<)! B2)!>(! (B3 A)!>)! |!p! z4!mf! b4- | b4 (3(!tenuto!a2 !tenuto!g2 !tenuto!e2) | %58
 (g3 f)!<(! (3(B,2 =C2 =D2) | (E2!<)! B2)"^m.s."!>(! (B3"^m.d." A)!>)! | z4"_cresc."!<(! [c'e']4- | %61
 [c'e']2 !tenuto![bd']2 (3!tenuto![ac']2 !tenuto![gb]2 !tenuto![fa]2!<)! | %62
!mp! [gb]4!pp! (3!tenuto![B,B]2 !tenuto![=C=c]2 !tenuto![=D=d]2- | [Dd]2 [Ee]4 [Ff]2- | %64
 [Ff]2 !tenuto![Gg]2- [Gg]!pp!"_cresc."!<(!!tenuto![=G=g]!tenuto![_G_g]!tenuto![=G=g] | %65
 !tenuto![=G=g]2 !tenuto![Aa]4 !tenuto![Bb]2- | %66
!p! !tenuto![Bb]2 !tenuto![cc']2!mp! (3!tenuto![Bb]2 !tenuto![=c=c']2 !tenuto![=d=d']2 | %67
!mf! !tenuto![=d=d']2 !tenuto![ee']2!f! !tenuto![dd']2 !tenuto![ee']2!<)! | %68
!f! (3!tenuto![=d=d']2 !tenuto![ee']2 !tenuto![dd']2!f! (5:4:5!tenuto![ee']!tenuto![d=d']!tenuto![ee']!tenuto![dd']!tenuto![ee'] | %69
!fff!"_appassionato"!8va(! !>![^d^d']2 !>![=e=e']2 !>![=b^c'e'c'']4- | %70
 [=bc'e'c'']2 !>![=a^c'=e'=a']2 !>![^gc'e'^g']3 !>![^f^f'] | !>![=f=g_d'f']6 [=e=e']2- | %72
 [ee']2!8va)! !>![^d^d']2 !>![^c=a^c']3 !>![=B=b] | %73
 !>![=B^c=b]2 !>![=Ac=e=a]2 !>![^Gce^g]3 !>![^F^f] | !>![=F=G_d=f]6 !>![=E=e]2- | %75
 [Ee]2 !>![^D^d]2 (3!>![=E=e]2 !>![Dd]2 !>![^C^c]2 | %76
 (3!>![^C^c]2 !>![=B,=B]2 !>![=A,=A]2 (3!>![A,C=EA]2 !>![^G,^G]3 !>![^F,^F] |!ff! (!>!=F6 !>!=E2) | %78
[Q:1/4=120]"_dim." (!>!F6 !tenuto!=E2) |[Q:1/4=110] (!>!_F6 !tenuto!_E2) | %80
[Q:1/4=100] (!>!=F6 !tenuto!=E2) |[Q:1/4=90] (!>!_F6[Q:1/4=40] !tenuto!!fermata!_E2)[Q:1/4=60] | %82
[Q:1/4=60] z4!p![Q:1/4=80] (B,2 C2[Q:1/4=60] E4 D4) z4!p![Q:1/4=90] (E2 _F2 _G2[Q:1/4=60] B4 A4) z4[Q:1/4=80] (B2 c2 e2 d2) (e2 _f2) (a6[Q:1/4=60] g2) | %83
!pp!"^Tempo Ⅰ．"[Q:1/4=72] !tenuto![Bg]4 !tenuto![Bg]4- | %84
 [Bg]2 (5:4:5([Af]/[Bg]/[Af]/[Ge]/[Af]/) !tenuto![Bg]3 !tenuto![Af]- | %85
 [Af] !tenuto![F=d]2 (!tenuto![Ge]/!tenuto![Af]/) [Ge]4- | %86
 [Ge] !tenuto![DB]2 !tenuto![Ec] !tenuto![_Fd]4- | %87
 [Fd](!tenuto![_Ge]/!tenuto![_Fd]/) !tenuto![Ec]4 !tenuto![DB]2- | [DB]2 !tenuto![CA]4 ([B,G]>E) | %89
!ppp! [=G,B,DE]4 [B=g]4- | [Bg]2 ([A_f]2 [=Ge]2 [Bd]2) | [ce]2 (3([Bd][ce][Bd]) [Ac]4- | %92
 [Ac]2 !tenuto![=DB]2 (3!tenuto![CA]2 !tenuto![B,G]2 !tenuto![A,F]2 | %93
 !tenuto![B,G]2 (3([A,F][B,G][A,F]) [G,E]4- | [G,E]!mf! !tenuto!B,2 C D4- | %95
 DE/D/ !tenuto!C4 !tenuto!B,2- | B,2[Q:1/4=68] A,4[Q:1/4=64] (3(!tenuto!G,!tenuto!A,!tenuto!G,) | %97
[Q:1/4=72] E,8 |!mf! (3z ([F,A,][G,B,] (3[A,C][B,D][CE]) (([GB]3 [FA])) | [G,E]8 | %100
 (3z ([FA][GB] (3[Ac][Bd][ce])[Q:1/4=68] (([gb]3[Q:1/4=60] [fa]))[Q:1/4=64] | %101
[Q:1/4=68] [Ge]8[Q:1/4=72] | %102
!f!"_cresc."!<(! z (!tenuto![eg]!tenuto![fa]!tenuto![gb][Q:1/4=68] !tenuto![ac']!tenuto![bd'][Q:1/4=64]!tenuto![c'e']!tenuto![d'f'])!<)! | %103
!ff![Q:1/4=72] (3:2:2!>!b'4 !>!e'2 (3:2:2!>!b4 !>!e2 | %104
 !>!B4[Q:1/4=68]"_m.d." x4[Q:1/4=64][Q:1/4=60] | %105
[Q:1/4=56]!fff! !fermata!z8[Q:1/4=52][Q:1/4=60][Q:1/4=36] |] %106
V:2
!pp!!ped! ([E,,,E,,]B,,G,E BEG,B,,)!ped-up! |!ped! ([E,,,E,,]B,,G,E BEG,B,,)!ped-up! | %2
!ped! ([E,,,E,,]B,,G,E BEG,B,,)!ped-up! |!ped! ([E,,,E,,]C,A,=D ADA,C,)!ped-up! | %4
!ped! ([E,,,E,,]B,,G,E BEG,B,,)!ped-up! |!ped! ([E,,,E,,]B,,=G,D =GDG,B,,)!ped-up! | %6
!ped! (A,,,!pp!!<(!A,,E,C ACE,A,,)!ped-up!!<)! |!p!!ped! (B,,,B,,A,=D BDA,B,,)!ped-up! | %8
!ped!!>(! (C,,C,G,C GCG,C,)!ped-up!!>)! |!ped! (A,,,A,,F,C ECF,A,,)!ped-up! | %10
!ped! ([E,,,E,,]B,,G,E BEG,B,,)!ped-up! |!ped! ([E,,,E,,]C,A,=D ADA,C,)!ped-up! | %12
!ped! ([E,,,E,,]B,,G,E BEG,B,,)!ped-up! |!ped! (E,,B,,!<(!G,E __E,,B,,G,__E)!ped-up!!<)! | %14
!mp!!ped! (D,,D,B,G BGB,D,)!ped-up! |!ped! (D,,D,F,C dCF,D,)!ped-up! | %16
!ped!!>(! ([G,,,G,,]D,G,B, EDB,G,)!ped-up!!>)! |!pp!!ped! ([A,,,A,,]F,CE) z (ECF,)!ped-up! | %18
!ped! ([B,,,B,,]F,B,=D GFDB,)!ped-up! |!ped! (F,,E,A,C GFCA,)!ped-up! | %20
!ped! ([B,,,B,,]F,B,=D GFDB,)!ped-up! |!ped! (A,,F,B,=D GFDB,)!ped-up! | %22
!ped!!<(! (G,,B,EG _cBGE)!ped-up!!<)! |!mp!!ped! ([=C,,=C,][K:treble]B,EG d=cGE)!ped-up! | %24
[K:bass]!ped! (F,,=C,=A,=C =ACA,C,)!ped-up! |!ped! ([=C,,=C,][K:treble]F,EG eGEG,)!ped-up! | %26
[K:bass]!ped! ([B,,,B,,][K:treble]F,DF dFDF,)!ped-up! | %27
[K:bass]!ped! ([F,,,F,,]=D,_C=D cDCD,)!ped-up! |!ped! ([G,,,G,,]E,B,E BEB,E,)!ped-up! | %29
!ped! ([A,,,A,,]F,CE cECF,)!ped-up! |!ped! (B,,,B,,G,E) z (EG,B,,)!ped-up! | %31
!ped! (B,,,B,,A,=D BDA,B,,)!ped-up! |!ped! ([E,,,E,,]B,,G,E) z (EG,B,,)!ped-up! | %33
!ped! ([E,,,E,,]C,A,=D ADA,C,)!ped-up! |!ped! ([E,,,E,,]B,,G,E BEG,B,,)!ped-up! | %35
!ped! ([E,,,E,,]B,,=G,D =GDG,B,,)!ped-up! |!ped! (A,,,A,,E,C ACE,A,,)!ped-up! | %37
!ped! (B,,,B,,A,=D BDA,B,,)!ped-up! |!f!!ped! ([E,,,E,,]B,,G,E BEG,B,,)!ped-up! | %39
!ped! ([E,,,E,,]B,,G,E BEG,B,,)!ped-up! |!ped! z2!mf! (D,2 B,4-)!ped-up! | %41
!ped! B,4 (A,2 E,2)!ped-up! |!ped! (G,4 F,4-)!ped-up! |!ped! F,4 (E,2 B,,2)!ped-up! | %44
!ped! (D,4 =C,4-)!ped-up! |!ped! C,2 (_C,2 B,,2 A,,2)!ped-up! |!ped! z2 (D,2!mf! B,4-)!ped-up! | %47
!ped! B,4 (A,2 E,2)!ped-up! |!ped! (G,4 F,4-)!ped-up! |!ped! F,4 (E,2 B,,2)!ped-up! | %50
!ped! (D,4 =C,4-)!ped-up! |!ped! C,2 D,2 _A,2 (G,A,)!ped-up! | %52
!ped! (!tenuto!C2 !tenuto!B,2)!ped-up![K:treble]!pp!!ped! ([=DB][B,A][DB][B,A])!ped-up! | %53
[K:bass]!ped! z[K:treble] ([A,F][EA][A,F] [EA][A,F][EA][A,F])!ped-up! | %54
[K:bass]!ped! z[K:treble] ([B,A][=DB][B,A])!ped-up![K:bass]!ped! [A,,F,]4!ped-up! | %55
!ped! [G,,E,]4!ped-up!!ped! [F,,F,]4!ped-up! | %56
!ped! z[K:treble]!pp! ([B,A][=DB][B,A] [DB][B,A][DB][B,A])!ped-up! | %57
[K:bass]!ped! z[K:treble] ([A,F][EA][A,F] [EA][A,F][EA][A,F])!ped-up! | %58
[K:bass]!ped! z[K:treble] ([B,A][=DB][B,A])!ped-up![K:bass]!ped! [A,,F,]4!ped-up! | %59
!ped! [G,,E,]4!ped!!ped-up! !arpeggio![A,,,A,,]4!ped-up! | %60
!p!!ped! z ([A,F][CA][A,F] [CA][A,F][CA][A,F])!ped-up! | %61
!ped! z ([CA][Dc][CA] [Dc][CA][Dc][CA])!ped-up! | %62
!ped! z [B,G][DB][B,G]!ped-up!!ped! (3z2 [B,,F,]2 [=D,B,]2!ped-up! | %63
!ped! (3z2 [B,,G,]2 [E,B,]2!ped-up!!ped! (3z2 [B,,A,]2 [=D,B,]2!ped-up! | %64
!ped! (3z2 [B,,G,]2 [E,B,]2!ped-up!!ped! (3z2 [E,B,]2 [=G,E]2!ped-up! | %65
!ped! (3z2 [E,C]2 [A,E]2!ped-up!!ped! (3z2 [E,D]2 [=G,E]2!ped-up! | %66
!ped! (3z2 [E,C]2 [A,E]2!ped-up!!ped! (3z2 [F,=D]2 [B,F]2!ped-up! | %67
!ped! (3z2 [G,E]2 [B,G]2!ped-up!!ped! (3z2 [E,B,]2 [=G,E]2!ped-up! | %68
!ped! (3z2 [E,C]2 [A,E]2!ped-up!!ped! (3z2 [E,_D]2 [=G,E]2!ped-up! | %69
!ped! z ([=E,^C][=A,=E][E,C]) ([A,E][E,C][A,E][K:treble][=E^c]) | [=A=e]8!ped-up! | %71
[K:bass]!ped! (3([_E,,,_E,,]2 [_B,,=G,]2 [G,_D]2) [D=G]4 | %72
 z ([=E,^C][=A,=E][E,C]) ([A,E][E,C][A,E][K:treble][=E^c])!ped-up! |!ped! [=E=e]8!ped-up! | %74
[K:bass]!ped! (3([_E,,,_E,,]2 [_B,,=G,]2 [G,_D]2) [D=G]4!ped-up! | %75
!ped! z (=E,[=A,^C]E,) (3([A,C]2 [E,A,]2 [E,A,=E]2)!ped-up! | %76
!ped! [=E,=A,=E]4!ped-up!!ped! z4!ped-up! | %77
!ped! (3([_E,,,_E,,]2 [_B,,=G,]2 [G,_D]2) [D=G]4!ped-up! | %78
!ped! (3([=A,,,=A,,]2 [A,,=G,]2 [G,^C]2) [C=G]4!ped-up! | %79
!ped! (3([_E,,,_E,,]2 [_B,,=G,]2 [G,_D]2) [D=G]4!ped-up! | %80
!ped! (3([=A,,,=A,,]2 [A,,=G,]2 [G,^C]2) [C=G]4!ped-up! | %81
!ped! (3([_E,,,_E,,]2 [_B,,=G,]2 [G,_D]2) !fermata![D=G]4!ped-up! | %82
 x32!ped!!ped-up!!ped! x16!ped-up!!ped!!ped-up!!ped! x8 x2!ped-up! | %83
!ped! ([E,,,E,,]B,,G,E) z (EG,B,,)!ped-up! |!ped! ([E,,,E,,]C,A,=D ADA,C,)!ped-up! | %85
!ped! ([E,,,E,,]B,,G,E BEG,B,,)!ped-up! |!ped! ([E,,,E,,]B,,=G,D =GDG,B,,)!ped-up! | %87
!ped! (A,,,A,,E,C ACE,A,,)!ped-up! |!ped! (B,,,B,,A,=D BDA,B,,)!ped-up! | %89
!ped! ([E,,,E,,]B,,=G,D =GDG,B,,)!ped-up! |!ped! (E,,B,,B,D BD=G,B,,)!ped-up! | %91
!ped! (E,,C,A,C ECA,C,)!ped-up! |!ped! (E,,B,,A,=D BDA,B,,)!ped-up! | %93
!ped! (E,,B,,G,E BEG,B,,)!ped-up! |!ped! (E,,B,,=G,D =GDG,B,,)!ped-up! | %95
!ped! (E,,C,A,E AFE,A,,)!ped-up! |!ped! (E,,C,_F,=D _GD C,2)!ped-up! | %97
!ped! ([E,,,E,,]B,,G,E BEG,B,,)!ped-up! |!ped! (A,,,A,,E,F, ECF,A,,)!ped-up! | %99
!ped! (E,,B,,G,E BEG,B,,)!ped-up! |!ped! ([A,,,A,,]F,CE cECF,)!ped-up! | %101
!ped! (E,,B,,G,E BEG,B,,)!ped-up! |!ped! ([A,,,A,,]F,CE AECF,)!ped-up! | %103
!ped! (9:4:12(1:1:3z (B,,G,) (E2 (1:1:2z [F,CE]2)!ped-up!!ped! (1:1:6(9:4:3z (B,,G,) (E2 (9:4:2z [F,CE]2)!ped-up! | %104
!ped! (3:2:2z ([B,,G,]2 z2)!ped-up!!ped! x4!ped-up! | %105
"^m.g."!ped! (3!>![E,,,E,,]!>!B,,!>!G, !>!E>!>!B !>!!fermata!B4!ped-up! |] %106
V:3
 x8 | x8 | x8 | x8 | x8 | x8 | x8 | x8 | x8 | x8 | x8 | x8 | x8 | x8 | x8 | x8 | x8 | x8 | x8 | %19
 x8 | x8 | x4 B4 | x8 | x8 | x8 | x8 | x8 | x8 | x8 | x8 | x8 | x8 | x8 | x8 | x8 | x8 | x8 | x8 | %38
 x8 | x8 | x8 | x8 | x8 | x8 | x8 | x8 | x8 | x8 | x8 | x8 | x8 | x8 | x8 | x8 | x4 B,4 | %55
 B,4 [_CE]4 | [F,A,=D]8 | x8 | x4 B,4 | B,4 [G,=CE]4 | [F,CD]8 | x8 | x4 [=DF]4 | [GB]4 [AB]4 | %64
 [Be]4 [Be]4 | [ce]4 [de]4 | [ea]4 [=df]4 | [gb]4 [=gb]4 | [ac']4 [=g_d']4 |!8va(! [=a^c']4 x4 | %70
 x8 | x8 | x2!8va)! x6 | x8 | x8 | x8 | x8 | [=G,_D]8 | [=G,^C]8 | [=G,_D]8 | [=G,^C]8 | [=G,_D]8 | %82
 x4 (=G,2 A,2 C4 B,4) x4 (C2 D2 E2 G4 _F4) x4 (G2 A2 c2 B2) (c2 d2) (c6 B2) | x8 | x8 | x8 | x8 | %87
 x8 | x8 | x8 | x8 | x8 | x8 | x8 | x8 | x8 | x8 | x8 | x8 | x8 | x8 | x8 | x8 | %103
 (3:2:14!>![f'a']!>![e'g']!>![d'f']!>![c'e'] (3(!>![bd']!>![ac']!>![gb]) (1:1:7!>![fa]!>![eg]!>![df]!>![ce] (9:4:3(!>![Bd]!>![Ac]!>![GB]) | %104
 (3([FA][EG][DF]) (3([CE][B,D][A,C])[I:staff +1] !>![G,B,]/!>![F,A,]/!>![E,G,]/!>![D,F,]/ (5:4:5!>![C,E,]/!>![B,,D,]/!>![A,,C,]/!>![G,,B,,]/!>![F,,A,,]/ | %105
 x8 |] %106
V:4
 x8 | x8 | x8 | x8 | x8 | x8 | x8 | x8 | x8 | x8 | x8 | x8 | x8 | x8 | x8 | x8 | x8 | x8 | x8 | %19
 x8 | x8 | x8 | x8 | x[K:treble] x7 |[K:bass] x8 | x4[K:treble] e2 x2 | %26
[K:bass] x4[K:treble] d2 x2 |[K:bass] x4 c2 x2 | x4 B2 x2 | x8 | x8 | x8 | x8 | x8 | x8 | x8 | x8 | %37
 x8 | x8 | x8 | [G,,,G,,]2 z2 z4 | x8 | x8 | [G,,,G,,]2 z2 z4 | x8 | x8 | [G,,,G,,]2 z2 z4 | x8 | %48
 x8 | [G,,,G,,]2 z2 z4 | x8 | x8 | x4[K:treble] x4 |[K:bass] C,8[K:treble] | %54
[K:bass] B,,4[K:treble][K:bass] x4 | x8 | [B,,,B,,]8[K:treble] |[K:bass] C,8[K:treble] | %58
[K:bass] B,,4[K:treble][K:bass] x4 | x3 (5:4:5x/4x/4x/4x/4x/4 x4 | [D,,A,,]8 | F,,8 | G,,4 A,,4 | %63
 G,,4 F,,4 | E,,4 D,,4 | [C,,C,]4 [B,,,B,,]4 | [A,,,A,,]4 [A,,A,]4 | [G,,G,]4 [_D,,_D,]4 | %68
 [C,,C,]4 [B,,,B,,]4 | [=A,,,=A,,]8[K:treble] | x8 |[K:bass] x8 | [=A,,,=A,,]8[K:treble] | x8 | %74
[K:bass] x8 | [=A,,,=A,,]8 | x8 | x8 | x8 | x8 | x8 | x8 | x58 | x8 | x8 | x8 | x8 | x8 | x8 | x8 | %90
 x8 | x8 | x8 | x8 | x8 | x8 | x8 | x8 | x8 | x8 | x8 | x8 | x8 | %103
 (3:2:2[E,,,E,,]4 [A,,,A,,]2 (3:2:2[E,,,E,,]4 [A,,,A,,]2 | [E,,,E,,]4 z4 | x8 |] %106

